X: 20623
T: John Riordan's Heels
R: jig
M: 6/8
K: Dminor
|:~F3 EFE|DFA BFD|EA,E B,EA,|^CDE GFE|
~F3 EFE|DFA BFD|EA,E B,EA,|1 ^CDE A2 E:|2 ^CDE D2 D||
|:~B3 BAG|E3 EGB|ADE FED|A,DE FGA|
~B3 BAG|E3 EGB|ADE FED|^CDE FGA:|
|:def f2f|def f2f|e^cA ge^c|ae^c A2 G|
def f2f|def f2f|e^cA ~g3|ed^c d2 A:|

